src/assets/icons/github.svg

<svg width="14" height="14" viewBox="0 0 14 14" fill="none" xmlns="http://www.w3.org/2000/svg">
<g id="github">
<g clip-path="url(#clip0_156_4466)">
<path id="Vector" d="M4.68305 11.2723C4.68305 11.33 4.6183 11.3764 4.53605 11.3764C4.4433 11.3852 4.37768 11.3388 4.37768 11.2723C4.37768 11.2145 4.44243 11.1682 4.52468 11.1682C4.60955 11.1594 4.68305 11.2058 4.68305 11.2723ZM3.80457 11.1419C3.78445 11.1997 3.84132 11.2662 3.92619 11.2837C3.99969 11.3125 4.08456 11.2837 4.10119 11.2259C4.11781 11.1682 4.06444 11.1017 3.97957 11.0754C3.90607 11.0553 3.8247 11.0842 3.80457 11.1419ZM5.05229 11.0929C4.97004 11.1131 4.91404 11.1682 4.92279 11.2347C4.93154 11.2924 5.00504 11.33 5.08904 11.3099C5.17128 11.2898 5.22728 11.2347 5.21853 11.1769C5.20978 11.1218 5.13366 11.0842 5.05229 11.0929ZM6.90986 0C2.99522 0 0.000183105 3.04841 0.000183105 7.06367C0.000183105 10.274 1.97063 13.0214 4.78454 13.9882C5.14591 14.0547 5.27278 13.8263 5.27278 13.6382C5.27278 13.4589 5.26403 12.4684 5.26403 11.8612C5.26403 11.8612 3.28834 12.2951 2.8736 10.9984C2.8736 10.9984 2.55161 10.1558 2.08875 9.93884C2.08875 9.93884 1.44214 9.48472 2.13425 9.4926C2.13425 9.4926 2.83685 9.55035 3.22359 10.2398C3.84132 11.3572 4.87729 11.0361 5.28153 10.8444C5.34628 10.3816 5.53002 10.0596 5.73302 9.86884C4.15544 9.68947 2.56298 9.45498 2.56298 6.66993C2.56298 5.8737 2.77735 5.47472 3.22884 4.96461C3.15534 4.77649 2.9156 4.00038 3.30234 2.99941C3.89207 2.81129 5.25003 3.78077 5.25003 3.78077C5.81439 3.61889 6.42162 3.5349 7.02273 3.5349C7.62384 3.5349 8.23107 3.61889 8.79543 3.78077C8.79543 3.78077 10.1534 2.80779 10.7431 2.99941C11.1299 4.00388 10.8901 4.77649 10.8166 4.96461C11.2681 5.47734 11.5446 5.87633 11.5446 6.66993C11.5446 9.46373 9.88215 9.68597 8.30457 9.86884C8.56443 10.0972 8.78405 10.5321 8.78405 11.2119C8.78405 12.1875 8.7753 13.395 8.7753 13.6321C8.7753 13.8202 8.9048 14.0486 9.26354 13.9821C12.0862 13.0214 13.9998 10.274 13.9998 7.06367C13.9998 3.04841 10.8245 0 6.90986 0ZM2.74323 9.98433C2.70648 10.0132 2.71523 10.0797 2.76335 10.1348C2.80885 10.1812 2.8736 10.2013 2.91035 10.1637C2.9471 10.1348 2.93835 10.0683 2.89022 10.0132C2.84473 9.96684 2.77998 9.94671 2.74323 9.98433ZM2.43874 9.74984C2.41861 9.78747 2.44749 9.83384 2.50349 9.86271C2.54898 9.89159 2.60498 9.88284 2.62511 9.84259C2.64523 9.80496 2.61636 9.75859 2.56036 9.72972C2.50349 9.71222 2.45886 9.72097 2.43874 9.74984ZM3.35309 10.7806C3.30759 10.8182 3.32509 10.9048 3.38983 10.9599C3.45458 11.0264 3.53683 11.0352 3.57358 10.9888C3.61033 10.9512 3.5937 10.8646 3.53683 10.8094C3.47471 10.7429 3.38983 10.7342 3.35309 10.7806ZM3.03197 10.3544C2.98647 10.3833 2.98647 10.4586 3.03197 10.5251C3.07747 10.5916 3.15359 10.6204 3.19034 10.5916C3.23584 10.5539 3.23584 10.4787 3.19034 10.4122C3.15097 10.3457 3.07747 10.3168 3.03197 10.3544Z" fill="black"/>
</g>
</g>
<defs>
<clipPath id="clip0_156_4466">
<rect width="14" height="14" fill="white"/>
</clipPath>
</defs>
</svg>

<svg xmlns="http://www.w3.org/2000/svg" fill="none" viewBox="0 0 14 14"><g clip-path="url(#a)"><path fill="#000" d="M4.683 11.272c0 .058-.065.104-.147.104-.093.01-.158-.037-.158-.104 0-.058.064-.104.147-.104.085-.009.158.038.158.104m-.878-.13c-.02.058.036.124.121.142.074.028.159 0 .175-.058.017-.058-.037-.124-.121-.15-.074-.02-.155.008-.175.066m1.247-.05c-.082.021-.138.076-.13.143.01.057.083.095.167.075.082-.02.138-.075.13-.133-.01-.055-.085-.093-.167-.084M6.91 0C2.995 0 0 3.048 0 7.064c0 3.21 1.97 5.957 4.785 6.924.36.067.488-.162.488-.35 0-.18-.009-1.17-.009-1.777 0 0-1.976.434-2.39-.863 0 0-.322-.842-.785-1.06 0 0-.647-.453.045-.445 0 0 .703.057 1.09.747.617 1.117 1.653.796 2.058.604.064-.462.248-.784.451-.975-1.578-.18-3.17-.414-3.17-3.2 0-.795.214-1.194.666-1.704-.074-.189-.313-.965.073-1.966.59-.188 1.948.782 1.948.782a6.5 6.5 0 0 1 3.545 0s1.358-.973 1.948-.782c.387 1.005.147 1.777.074 1.966.451.512.728.911.728 1.705 0 2.794-1.663 3.016-3.24 3.199.26.228.48.663.48 1.343 0 .976-.01 2.183-.01 2.42 0 .188.13.417.489.35C12.086 13.022 14 10.274 14 7.064 14 3.048 10.825 0 6.91 0M2.743 9.984c-.037.03-.028.096.02.15.046.047.11.067.147.03.037-.03.028-.096-.02-.15-.045-.047-.11-.067-.147-.03M2.44 9.75c-.02.037.008.084.064.113.046.029.102.02.122-.02.02-.038-.009-.084-.065-.113-.057-.018-.101-.009-.121.02m.914 1.03c-.045.038-.028.125.037.18.065.066.147.075.184.029.036-.038.02-.124-.037-.18-.062-.066-.147-.075-.184-.028m-.321-.426c-.046.03-.046.105 0 .171.045.067.122.095.158.067.046-.038.046-.113 0-.18-.039-.066-.113-.095-.158-.058"/></g><defs><clipPath id="a"><path fill="#fff" d="M0 0h14v14H0z"/></clipPath></defs></svg>
